templates/main/source/images/service-1.svg

<svg xmlns="http://www.w3.org/2000/svg" width="40" height="34" viewBox="0 0 40 34">
  <path fill="#8C0014" d="M6.91101563,0.629427083 C7.23648438,0.304036458 7.76414063,0.304036458 8.08945313,0.629427083 L8.08945313,0.629427083 L9.51242188,2.05231771 L20.8332031,2.05231771 C21.2934375,2.05231771 21.6665625,2.42544271 21.6665625,2.88567708 L21.6665625,2.88567708 L21.6665625,5.38528646 L24.1666406,5.38528646 C24.6269531,5.38528646 25,5.75841146 25,6.21864583 L25,6.21864583 L25,10.385599 L33.3336719,10.385599 C34.7122656,10.385599 35.8336719,11.5070833 35.8336719,12.885599 L35.8336719,12.885599 L35.8336719,13.7895833 C38.195,14.1877083 40,16.2457552 40,18.7186458 L40,18.7186458 L40,29.5522396 C40,30.012474 39.626875,30.385599 39.1666406,30.385599 L39.1666406,30.385599 L35.7498438,30.385599 C35.363125,32.2831771 33.6825781,33.7156771 31.6732031,33.7188802 L31.6732031,33.7188802 L26.6671875,33.7188802 C26.2069531,33.7188802 25.8338281,33.3457552 25.8338281,32.8855208 C25.8338281,32.4252865 26.2070313,32.0521615 26.6671875,32.0521615 L26.6671875,32.0521615 L28.3361719,32.0521615 C27.9714844,31.567474 27.7097656,31.0009896 27.584375,30.3855208 L27.584375,30.3855208 L12.4159375,30.3855208 C12.0292188,32.283099 10.3486719,33.715599 8.33929688,33.7184896 L8.33929688,33.7184896 L3.33335938,33.7188802 C2.87304688,33.7188802 2.5,33.345599 2.5,32.8854427 C2.5,32.4252865 2.87304688,32.0520833 3.33328125,32.0520833 L3.33328125,32.0520833 L5.0021875,32.0520833 C4.6375,31.5673958 4.37585938,31.0009115 4.25046875,30.3854427 L4.25046875,30.3854427 L0.833359375,30.3854427 C0.373125,30.3854427 0,30.0122396 0,29.5520833 L0,29.5520833 L0,6.21864583 C0,5.75841146 0.373125,5.38536458 0.833359375,5.38528646 L0.833359375,5.38528646 L2.15492188,5.38528646 Z M8.33328125,27.0519271 C6.9546875,27.0519271 5.83320313,28.1734896 5.83320313,29.5520833 C5.83320313,30.9305208 6.9546875,32.0519271 8.33328125,32.0519271 C9.71164063,32.0519271 10.8330469,30.9305208 10.833125,29.5520833 C10.833125,28.1734896 9.71171875,27.0519271 8.33328125,27.0519271 Z M31.6691406,27.0520052 C30.2850781,27.055599 29.1670313,28.175599 29.1670313,29.5520833 C29.1670313,30.9305208 30.2885938,32.0519271 31.6671094,32.0519271 C33.0446094,32.0519271 34.1654688,30.9320833 34.1669531,29.5548177 L34.1669531,29.5548177 C34.1654688,28.1727865 33.0457812,27.053099 31.6691406,27.0520052 L31.6691406,27.0520052 Z M23.3332813,7.05184896 L1.66664062,7.05184896 L1.66664062,10.3855208 L11.6664063,10.3855208 C12.1267188,10.3855208 12.4997656,10.7586458 12.4997656,11.2188802 C12.4997656,11.6791927 12.1266406,12.0522396 11.6664063,12.0522396 L11.6664063,12.0522396 L1.66664062,12.0522396 L1.66664062,13.7188021 L4.99984375,13.7188021 C5.46007813,13.7188021 5.83320313,14.0919271 5.83320313,14.5521615 C5.83320313,15.012474 5.46,15.3855208 4.99984375,15.3855208 L4.99984375,15.3855208 L1.66664062,15.3855208 L1.66664062,28.7188802 L4.25039062,28.7188802 C4.6375,26.8192708 6.32117188,25.3854427 8.33328125,25.3854427 C10.3453906,25.3854427 12.0288281,26.8191927 12.4159375,28.7188802 L12.4159375,28.7188802 L23.3332813,28.7188802 L23.3332813,27.0522396 L17.6658594,27.0522396 C17.2055469,27.0522396 16.8325,26.6791146 16.8325,26.2188802 C16.8325,25.7586458 17.205625,25.3855208 17.6658594,25.3855208 L17.6658594,25.3855208 L23.3332813,25.3855208 L23.3332813,7.05184896 Z M28.3360156,27.0521615 L25,27.0521615 L25,28.7188021 L27.584375,28.7188021 C27.7096875,28.1033333 27.97125,27.5369271 28.3360156,27.0521615 L28.3360156,27.0521615 Z M33.3336719,12.0523177 L24.9999219,12.0523177 L24.9999219,25.3855208 L31.663877,25.3854427 L31.663877,25.3854427 C33.6792187,25.3853646 35.3626562,26.8191146 35.7498437,28.7188021 L35.7498437,28.7188021 L38.3333594,28.7188021 L38.3333594,22.8855208 L28.33375,22.8855208 C27.8735156,22.8855208 27.5003906,22.5123958 27.5003906,22.0521615 L27.5003906,22.0521615 L27.5003906,14.5523177 C27.5003906,14.0920052 27.8735937,13.7189583 28.33375,13.7189583 L28.33375,13.7189583 L34.1670312,13.7189583 L34.1670312,12.8856771 C34.1670312,12.4261458 33.7932031,12.0523177 33.3336719,12.0523177 L33.3336719,12.0523177 Z M14.9261719,25.3854427 C15.3864063,25.3854427 15.7595313,25.7585677 15.7595313,26.2188021 C15.7595313,26.6790365 15.3863281,27.0521615 14.9261719,27.0521615 L14.9261719,27.0521615 L14.4060156,27.0521615 C13.9458594,27.0521615 13.5726563,26.6790365 13.5726563,26.2188021 C13.5726563,25.7585677 13.9457813,25.3854427 14.4060156,25.3854427 L14.4060156,25.3854427 Z M30.8338281,15.3855208 L29.1671094,15.3855208 L29.1671094,21.218724 L30.8338281,21.218724 L30.8338281,15.3855208 Z M35.0003906,15.3855208 L32.5004687,15.3855208 L32.5004687,21.218724 L38.3333594,21.218724 L38.3333594,18.7185677 C38.3333594,16.8806771 36.8382031,15.3855208 35.0003906,15.3855208 L35.0003906,15.3855208 Z M14.9261719,10.385599 C15.3864063,10.385599 15.7595313,10.758724 15.7595313,11.2189583 C15.7595313,11.6792708 15.3863281,12.0523177 14.9261719,12.0523177 L14.9261719,12.0523177 L14.4060156,12.0523177 C13.9458594,12.0523177 13.5727344,11.6791927 13.5726563,11.2189583 C13.5726563,10.7586458 13.9457813,10.385599 14.4060156,10.385599 L14.4060156,10.385599 Z M19.9999219,3.71903646 L11.1791406,3.71903646 L12.8455469,5.38536458 L19.9999219,5.38536458 L19.9999219,3.71903646 Z M7.50023437,2.39716146 L4.51203125,5.38536458 L10.4885156,5.38536458 L8.57867188,3.47552083 C8.57828125,3.47513021 8.5778125,3.47466146 8.57742187,3.47427083 L7.50023437,2.39716146 Z"/>
</svg>

<svg xmlns="http://www.w3.org/2000/svg" width="40" height="34" viewBox="0 0 40 34"><path fill="#8C0014" d="M6.911.63a.833.833 0 011.178 0l1.423 1.422h11.321c.46 0 .834.373.834.834v2.5h2.5c.46 0 .833.372.833.833v4.167h8.334c1.378 0 2.5 1.121 2.5 2.5v.904A5.007 5.007 0 0140 18.719v10.833c0 .46-.373.834-.833.834H35.75a4.174 4.174 0 01-4.077 3.333h-5.006a.833.833 0 010-1.667h1.67a4.149 4.149 0 01-.753-1.666H12.416a4.173 4.173 0 01-4.077 3.332H3.333a.833.833 0 010-1.666h1.67a4.149 4.149 0 01-.753-1.667H.833A.833.833 0 010 29.552V6.22c0-.46.373-.834.833-.834h1.322zm1.422 26.422a2.503 2.503 0 00-2.5 2.5c0 1.379 1.122 2.5 2.5 2.5 1.379 0 2.5-1.121 2.5-2.5s-1.121-2.5-2.5-2.5zm23.336 0a2.505 2.505 0 00-2.502 2.5c0 1.379 1.122 2.5 2.5 2.5a2.503 2.503 0 002.5-2.497 2.504 2.504 0 00-2.498-2.503zm-8.336-20H1.667v3.334h10a.833.833 0 110 1.666h-10v1.667H5a.833.833 0 010 1.667H1.667v13.333H4.25a4.174 4.174 0 014.083-3.334 4.174 4.174 0 014.083 3.334h10.917v-1.667h-5.667a.833.833 0 110-1.666h5.667V7.052zm5.003 20H25v1.667h2.584a4.147 4.147 0 01.752-1.667zm4.998-15H25v13.334h6.664a4.174 4.174 0 014.086 3.333h2.583v-5.833h-10a.833.833 0 01-.833-.834v-7.5c0-.46.374-.833.834-.833h5.833v-.833a.834.834 0 00-.833-.834zM14.926 25.385a.833.833 0 010 1.667h-.52a.833.833 0 010-1.667zm15.908-10h-1.667v5.834h1.667v-5.833zm4.166 0h-2.5v5.834h5.833v-2.5A3.337 3.337 0 0035 15.386zm-20.074-5a.833.833 0 010 1.667h-.52a.833.833 0 010-1.666zM20 3.72h-8.82l1.666 1.666H20V3.72zM7.5 2.397L4.512 5.385h5.977l-1.91-1.91h-.002L7.5 2.396z"/></svg>
